X: 37013
T: Siege Of Limerick, The
R: three-two
M: 3/2
K: Gminor
|:G3A B2G2 d4|A3B c2^F2 B4|=E3G ^F2A2 ABc2|D2G2- G2^F2 G4:|
F3G FED2 DEF2|G3A GAB2 ABc2|d2A2 F2G2 FED2|DEF2- F2A2 B4||
|:d3e d2B2 G4|c3d c2A2 ^F4|B3c B2G2 =E2A2|^F2D2- D2F2 G4:|

